icons/star.svg

<svg width="24" height="24" viewBox="0 0 24 24" fill="none" xmlns="http://www.w3.org/2000/svg">
<path d="M16.998 20.8979C16.798 20.8979 16.598 20.8979 16.398 20.7979L12.298 18.5979C11.998 18.4979 11.898 18.5979 11.898 18.5979L7.698 20.7979C7.098 20.9979 6.598 20.8979 6.198 20.5979C5.798 20.2979 5.598 19.7979 5.698 19.2979L6.498 14.6979C6.498 14.6979 6.498 14.6979 6.498 14.5979L3.098 11.2979C2.698 10.8979 2.598 10.2979 2.798 9.7979C2.998 9.2979 3.398 8.8979 3.998 8.7979L8.698 8.1979L10.798 3.8979C10.998 3.4979 11.398 3.0979 11.898 3.0979C12.498 3.0979 12.998 3.2979 13.298 3.7979L15.398 8.1979L20.098 8.8979C20.598 8.9979 20.998 9.2979 21.198 9.7979C21.398 10.2979 21.298 10.7979 20.998 11.1979L20.898 11.2979L17.498 14.6979L18.298 19.2979C18.398 19.7979 18.198 20.2979 17.798 20.5979C17.598 20.7979 17.298 20.8979 16.998 20.8979ZM11.898 17.0979C12.198 17.0979 12.398 17.0979 12.698 17.1979L12.898 17.2979L16.898 19.3979L16.098 14.7979C16.098 14.5979 16.098 13.8979 16.598 13.5979L19.798 10.3979L14.898 9.6979C14.698 9.5979 14.298 9.3979 14.098 8.9979L12.098 4.7979L10.098 8.9979C9.798 9.1979 9.498 9.5979 8.898 9.6979L4.298 10.2979L7.598 13.5979C7.998 13.9979 7.998 14.4979 7.998 14.6979V14.7979L7.198 19.2979L11.198 17.1979C11.398 17.0979 11.698 17.0979 11.898 17.0979Z" fill="black"/>
</svg>

<svg xmlns="http://www.w3.org/2000/svg" fill="none" viewBox="0 0 24 24">
  <path fill="#000" d="M16.998 20.898c-.2 0-.4 0-.6-.1l-4.1-2.2c-.3-.1-.4 0-.4 0l-4.2 2.2c-.6.2-1.1.1-1.5-.2-.4-.3-.6-.8-.5-1.3l.8-4.6v-.1l-3.4-3.3c-.4-.4-.5-1-.3-1.5s.6-.9 1.2-1l4.7-.6 2.1-4.3c.2-.4.6-.8 1.1-.8.6 0 1.1.2 1.4.7l2.1 4.4 4.7.7c.5.1.9.4 1.1.9.2.5.1 1-.2 1.4l-.1.1-3.4 3.4.8 4.6c.1.5-.1 1-.5 1.3-.2.2-.5.3-.8.3Zm-5.1-3.8c.3 0 .5 0 .8.1l.2.1 4 2.1-.8-4.6c0-.2 0-.9.5-1.2l3.2-3.2-4.9-.7c-.2-.1-.6-.3-.8-.7l-2-4.2-2 4.2c-.3.2-.6.6-1.2.7l-4.6.6 3.3 3.3c.4.4.4.9.4 1.1v.1l-.8 4.5 4-2.1c.2-.1.5-.1.7-.1Z"/>
</svg>
